T: Wrecking, The
M: 4/4
L: 1/8
K: Gmin
g|fdc/B/A BGGA|BGAG FGAg|fdc/B/A BGGA|BGAF D2GG:|
Ggga bgdg|fdcB AFFA|Ggga bgdg|fdc/B/A BGG2|
Ggga bgdg|fdcB AFFg|bgaf gbag|fdc/B/A BGG2||
